packages/ui-icons/svg/Solid/text-end.svg

<svg viewBox="0 0 1920 1920" xmlns="http://www.w3.org/2000/svg">
    <path d="M1920.128 1600v256H256v-256h1664.128Zm-.128-384.128V1472H0v-256.128h1920Zm.128-383.872v256H256V832h1664.128ZM1920 448v256H0V448h1920Zm.128-384.128V320H256V63.872h1664.128Z" fill-rule="evenodd"/>
</svg>

<svg viewBox="0 0 1920 1920" version="1.1" xmlns="http://www.w3.org/2000/svg">
    <path d="M1920.128,1600 L1920.128,1856 L256,1856 L256,1600 L1920.128,1600 Z M1920,1215.872 L1920,1472 L-2.5243549e-29,1472 L-2.5243549e-29,1215.872 L1920,1215.872 Z M1920.128,832 L1920.128,1088 L256,1088 L256,832 L1920.128,832 Z M1920,448 L1920,704 L-2.5243549e-29,704 L-2.5243549e-29,448 L1920,448 Z M1920.128,63.872 L1920.128,320 L256,320 L256,63.872 L1920.128,63.872 Z" stroke="none" stroke-width="1" fill-rule="evenodd"/>
</svg>
